X:1
T: Capers
C:
R:Jig
Q:180
K:C
M:6/8
L:1/16
G4F2|E6 C2E2G2|F2E2F2 A2d2c2|B2A2B2 a4^f2|g2^f2a2 g4F2|E6 C2E2G2|F2E2F2 A2d2c2|B2A2B2 a4B2|c6 c2E2D2|
E6 C2E2G2|F2E2F2 A2d2c2|B2A2B2 a4^f2|g2^f2a2 g4F2|E6 C2E2G2|F2E2F2 A2d2c2|B2A2B2 a4B2|c6 c2E2D2|
G,2C2E2 G2c2e2|a2g2^f2 g4e2|c2B2c2 E4G2|F6 F4E2|D2F2A2 d4e2|f2e2f2 A2B2c2|B2A2B2 a2^f2a2|g6 g4C2|
G,2C2E2 G2c2e2|a2g2^f2 g4e2|c2B2c2 E4G2|F6 F4E2|D2F2A2 d4e2|f2e2f2 A4c'2|b2a2g2 f2e2d2|c6||
